X: 1156
T: An Buinnean Bui
R: barndance
M: 4/4
K: Dmajor
AA|{F}G2 FG AB|=c3 B A/G/F/E/|D2 {F}E/D/E/F/ DD|D2 z2 AA|
{F}G2 FG AB|=c3 B A/G/F/E/|D2 E/D/E/F/ DD|D2 z2||~AB/c/|
~d3 d/e/ ff|e3 d/e/ fe|d2 c{d/c/}B/A/ {A/c/}B>A|A2 z2 AA|
{F}G2 ~FG AB|{=c/e/}c3B A/G/ F/E/|D2 {F}E/D/E/F/ DD|D2||

